images/ico-bicro-marche-feuille.svg

<svg xmlns="http://www.w3.org/2000/svg" width="26" height="25" fill="none" viewBox="0 0 26 25"><g id="marche/feuille"><circle id="Ellipse 12" cx="19.25" cy="6.25" r="6.25" fill="#fdd"/><g id="Group 11" fill="#000638"><path id="Shape" fill-rule="evenodd" d="M13.4825 2.65719C13.6614 2.51242 13.689 2.25005 13.5443 2.07118C13.3995 1.8923 13.1371 1.86466 12.9582 2.00943C8.86937 5.31873 6.80371 8.70412 6.80371 12.1666C6.80371 13.0025 6.92453 13.823 7.16593 14.6269C7.23211 14.8473 7.46443 14.9723 7.68483 14.9061C7.90522 14.8399 8.03024 14.6076 7.96405 14.3872C7.74597 13.661 7.63704 12.9212 7.63704 12.1666C7.63704 8.9928 9.57138 5.82263 13.4825 2.65719ZM8.8792 16.1335L8.80664 16.0292C8.67755 15.8387 8.41847 15.7889 8.22797 15.918C8.03747 16.0471 7.98769 16.3062 8.11678 16.4967C8.13107 16.5178 8.14584 16.5392 8.16106 16.561L8.25795 16.6964L8.36596 16.8404C8.38489 16.8652 8.40428 16.8903 8.42414 16.9158L8.54884 17.073L8.68468 17.239L8.83166 17.4137C8.85709 17.4436 8.88298 17.4738 8.90934 17.5044L9.07306 17.6924L9.24796 17.8892L9.43403 18.0949L9.6313 18.3094L9.83976 18.5328L10.0594 18.765L10.41 19.13L10.7858 19.5151L11.0504 19.783L11.4317 20.1651L11.9636 20.6914L12.5319 21.2468L12.9312 21.6332C13.0968 21.793 13.3606 21.7882 13.5203 21.6226C13.6801 21.457 13.6753 21.1932 13.5097 21.0334L12.8205 20.3644L12.1822 19.736L11.8237 19.3785L11.4835 19.0358L11.0586 18.6017L10.8584 18.3945L10.5735 18.0961L10.307 17.8124L10.059 17.5437L9.90396 17.3728L9.75712 17.2085L9.5523 16.9744L9.36602 16.7554L9.25214 16.6177L9.14651 16.4866L9.04914 16.3622L8.96003 16.2445L8.8792 16.1335Z" clip-rule="evenodd"/><path id="Shape_2" fill-rule="evenodd" d="M19.1794 12.6666C19.1794 9.17789 17.4456 5.85087 14.008 2.69529C13.8385 2.53968 13.5749 2.55095 13.4193 2.72047C13.2637 2.88999 13.275 3.15357 13.4445 3.30919C16.7222 6.31809 18.3461 9.43401 18.3461 12.6666C18.3461 13.2721 18.2892 13.8526 18.1758 14.4083C18.1297 14.6338 18.2752 14.8539 18.5007 14.8999C18.7261 14.9459 18.9462 14.8005 18.9923 14.575C19.1171 13.9635 19.1794 13.3273 19.1794 12.6666ZM18.3053 16.5231C18.4188 16.323 18.3486 16.0687 18.1485 15.9551C17.9483 15.8415 17.694 15.9117 17.5805 16.1119C17.5719 16.1269 17.563 16.1422 17.5537 16.1578L17.4934 16.2544C17.4717 16.2877 17.4485 16.3221 17.4238 16.3576L17.345 16.4671L17.257 16.5832L17.1599 16.7056L17.0536 16.8344L16.9382 16.9696L16.8136 17.1111L16.6799 17.259L16.5371 17.4132L16.3852 17.5736L16.2243 17.7404L16.1404 17.8261L15.8751 18.0927L15.6869 18.2782L15.3876 18.5681L15.0681 18.8719L14.7283 19.1895L14.3683 19.5209L14.117 19.7495L13.7233 20.1037L13.4497 20.3474C13.2776 20.5001 13.2618 20.7635 13.4146 20.9356C13.5673 21.1077 13.8306 21.1235 14.0028 20.9708L14.2849 20.7195L14.8214 20.2357L15.321 19.7767L15.5569 19.5566L15.8936 19.2378L16.1066 19.033L16.3104 18.8344L16.5989 18.5477L16.8669 18.2748L16.9517 18.1869L17.1144 18.0155L17.2679 17.8501L17.4124 17.6907L17.5478 17.5373L17.6741 17.3899L17.7914 17.2484L17.8996 17.1128L17.9988 16.9831L18.0889 16.8594C18.146 16.7788 18.1971 16.7021 18.2421 16.6294L18.3053 16.5231Z" clip-rule="evenodd"/><path id="Path 25" d="M13.3942 7.72729C13.6099 7.72729 13.7874 7.89125 13.8087 8.10136L13.8109 8.14396V22.8539C13.8109 23.084 13.6243 23.2705 13.3942 23.2705C13.1785 23.2705 13.001 23.1066 12.9797 22.8965L12.9775 22.8539V8.14396C12.9775 7.91384 13.1641 7.72729 13.3942 7.72729Z"/><path id="Path 26" d="M15.3205 9.38884C15.4739 9.21735 15.7374 9.20271 15.9088 9.35615C16.0689 9.49936 16.0923 9.73837 15.97 9.90903L15.9415 9.9445L13.7047 12.4445C13.5513 12.616 13.2879 12.6306 13.1164 12.4772C12.9563 12.334 12.9329 12.095 13.0552 11.9243L13.0837 11.8888L15.3205 9.38884Z"/><path id="Path 27" d="M10.4231 11.5308C10.579 11.3831 10.8191 11.3795 10.9791 11.5155L11.0121 11.5467L13.6964 14.3801C13.8547 14.5471 13.8475 14.8108 13.6805 14.9691C13.5246 15.1168 13.2845 15.1205 13.1245 14.9845L13.0915 14.9532L10.4072 12.1199C10.2489 11.9528 10.256 11.6891 10.4231 11.5308Z"/><path id="Path 28" d="M15.7838 13.3719C15.9465 13.2093 16.2104 13.2094 16.373 13.3722C16.5248 13.5241 16.5348 13.764 16.4031 13.9276L16.3728 13.9614L13.5149 16.8168C13.3521 16.9794 13.0883 16.9793 12.9256 16.8165C12.7738 16.6646 12.7638 16.4247 12.8955 16.2611L12.9259 16.2273L15.7838 13.3719Z"/><path id="Path 29" d="M10.412 15.7083C10.5623 15.5549 10.8021 15.5423 10.9671 15.6722L11.0012 15.7023L13.6855 18.3318C13.8499 18.4928 13.8526 18.7567 13.6916 18.921C13.5413 19.0745 13.3015 19.0871 13.1365 18.9571L13.1023 18.9271L10.4181 16.2976C10.2537 16.1365 10.251 15.8727 10.412 15.7083Z"/><path id="Oval" fill-rule="evenodd" d="M3.91602 7.5C3.91602 6.80964 4.47566 6.25 5.16602 6.25C5.85637 6.25 6.41602 6.80964 6.41602 7.5C6.41602 8.19036 5.85637 8.75 5.16602 8.75C4.47566 8.75 3.91602 8.19036 3.91602 7.5ZM5.58268 7.5C5.58268 7.26988 5.39613 7.08333 5.16602 7.08333C4.9359 7.08333 4.74935 7.26988 4.74935 7.5C4.74935 7.73012 4.9359 7.91667 5.16602 7.91667C5.39613 7.91667 5.58268 7.73012 5.58268 7.5Z" clip-rule="evenodd"/><path id="Oval_2" fill-rule="evenodd" d="M5.58301 19.5C5.58301 18.8096 6.14265 18.25 6.83301 18.25C7.52336 18.25 8.08301 18.8096 8.08301 19.5C8.08301 20.1904 7.52336 20.75 6.83301 20.75C6.14265 20.75 5.58301 20.1904 5.58301 19.5ZM7.24967 19.5C7.24967 19.2699 7.06313 19.0833 6.83301 19.0833C6.60289 19.0833 6.41634 19.2699 6.41634 19.5C6.41634 19.7301 6.60289 19.9167 6.83301 19.9167C7.06313 19.9167 7.24967 19.7301 7.24967 19.5Z" clip-rule="evenodd"/><path id="Oval_3" fill-rule="evenodd" d="M18.583 6.16663C18.583 5.47627 19.1427 4.91663 19.833 4.91663C20.5234 4.91663 21.083 5.47627 21.083 6.16663C21.083 6.85698 20.5234 7.41663 19.833 7.41663C19.1427 7.41663 18.583 6.85698 18.583 6.16663ZM20.2497 6.16663C20.2497 5.93651 20.0631 5.74996 19.833 5.74996C19.6029 5.74996 19.4163 5.93651 19.4163 6.16663C19.4163 6.39674 19.6029 6.58329 19.833 6.58329C20.0631 6.58329 20.2497 6.39674 20.2497 6.16663Z" clip-rule="evenodd"/></g></g></svg>

<svg xmlns="http://www.w3.org/2000/svg" width="26" height="25" fill="none" viewBox="0 0 26 25"><circle cx="19.25" cy="6.25" r="6.25" fill="#FDD"/><g fill="#000638"><path fill-rule="evenodd" d="M13.483 2.657a.417.417 0 1 0-.525-.648C8.87 5.32 6.804 8.704 6.804 12.167q0 1.253.362 2.46a.417.417 0 1 0 .798-.24 7.7 7.7 0 0 1-.327-2.22c0-3.174 1.934-6.344 5.846-9.51M8.878 16.134l-.072-.105a.417.417 0 1 0-.69.468l.044.064.097.135.108.144.058.076.125.157.136.166.147.175.077.09.164.188.175.197.186.206.197.214.209.224.22.232.35.365.376.385.264.268.382.382.532.526.568.556.4.386a.417.417 0 1 0 .578-.6l-.69-.669-.638-.628-.358-.358-.34-.342-.425-.434-.2-.207-.286-.299-.266-.284-.248-.268-.155-.171-.147-.165-.205-.234-.186-.219-.114-.137-.105-.131-.098-.125-.089-.117z" clip-rule="evenodd"/><path fill-rule="evenodd" d="M19.18 12.667c0-3.49-1.734-6.816-5.172-9.972a.417.417 0 1 0-.563.614c3.277 3.01 4.901 6.125 4.901 9.358q0 .908-.17 1.741a.417.417 0 1 0 .816.167 9.5 9.5 0 0 0 .187-1.908m-.875 3.856a.417.417 0 0 0-.724-.411l-.027.046-.06.096-.07.104-.079.11-.088.115-.097.123-.106.128-.116.136-.124.141-.134.148-.143.154-.152.16-.16.167-.085.086-.265.267-.188.185-.3.29-.319.304-.34.317-.36.332-.251.229-.394.354-.273.243a.417.417 0 1 0 .553.624l.282-.252.536-.483.5-.46.236-.22.337-.318.213-.205.203-.199.289-.286.268-.273.085-.088.162-.172.154-.165.144-.16.136-.153.126-.147.117-.142.109-.135.099-.13.09-.124q.085-.12.153-.23z" clip-rule="evenodd"/><path d="M13.394 7.727c.216 0 .393.164.415.374l.002.043v14.71a.417.417 0 0 1-.831.043l-.003-.043V8.144c0-.23.187-.417.417-.417"/><path d="M15.32 9.389a.417.417 0 0 1 .65.52l-.029.035-2.236 2.5a.417.417 0 0 1-.65-.52l.029-.035zm-4.897 2.141a.417.417 0 0 1 .556-.014l.033.03 2.684 2.834a.417.417 0 0 1-.572.604l-.033-.03-2.684-2.834a.417.417 0 0 1 .016-.59m5.361 1.842a.417.417 0 0 1 .62.556l-.031.033-2.858 2.856a.417.417 0 0 1-.62-.556l.03-.034zm-5.372 2.336a.417.417 0 0 1 .555-.036l.034.03 2.685 2.63a.417.417 0 0 1-.55.625l-.034-.03-2.684-2.63a.417.417 0 0 1-.006-.589"/><path fill-rule="evenodd" d="M3.916 7.5a1.25 1.25 0 1 1 2.5 0 1.25 1.25 0 0 1-2.5 0m1.667 0a.417.417 0 1 0-.834 0 .417.417 0 0 0 .834 0m0 12a1.25 1.25 0 1 1 2.5 0 1.25 1.25 0 0 1-2.5 0m1.667 0a.417.417 0 1 0-.834 0 .417.417 0 0 0 .834 0M18.583 6.167a1.25 1.25 0 1 1 2.5 0 1.25 1.25 0 0 1-2.5 0m1.667 0a.417.417 0 1 0-.834 0 .417.417 0 0 0 .834 0" clip-rule="evenodd"/></g></svg>
